X: 1
T: The Fox On The Town
R: reel
M: 4/4
L: 1/8
K: Gmaj
ef|gedB edBA|G2BG DGBd|gedB edef|g3f efga|!
beed edBA|G2BG DGBd|efgb adfa|gbaf g2:|!
ga|beed Bdge|dBB2 dega|bee2 bege|efgb a2gf|!
g3e dedB|GBdg edBd|efgb adfa|gbaf g2:|!


Tune 341	Setting 13130

